packages/icons/src/heading.svg

<svg width="15" height="15" viewBox="0 0 15 15" fill="none" xmlns="http://www.w3.org/2000/svg">
  <path
    fill-rule="evenodd"
    clip-rule="evenodd"
    d="M8.75432 2.0502C8.50579 2.0502 8.30432 2.25167 8.30432 2.5002C8.30432 2.74873 8.50579 2.9502 8.75432 2.9502H9.94997V7.05004H5.04997V2.9502H6.25432C6.50285 2.9502 6.70432 2.74873 6.70432 2.5002C6.70432 2.25167 6.50285 2.0502 6.25432 2.0502H2.75432C2.50579 2.0502 2.30432 2.25167 2.30432 2.5002C2.30432 2.74873 2.50579 2.9502 2.75432 2.9502H3.94997V12.0502H2.75432C2.50579 12.0502 2.30432 12.2517 2.30432 12.5002C2.30432 12.7487 2.50579 12.9502 2.75432 12.9502H6.25432C6.50285 12.9502 6.70432 12.7487 6.70432 12.5002C6.70432 12.2517 6.50285 12.0502 6.25432 12.0502H5.04997V7.95004H9.94997V12.0502H8.75432C8.50579 12.0502 8.30432 12.2517 8.30432 12.5002C8.30432 12.7487 8.50579 12.9502 8.75432 12.9502H12.2543C12.5028 12.9502 12.7043 12.7487 12.7043 12.5002C12.7043 12.2517 12.5028 12.0502 12.2543 12.0502H11.05V2.9502H12.2543C12.5028 2.9502 12.7043 2.74873 12.7043 2.5002C12.7043 2.25167 12.5028 2.0502 12.2543 2.0502H8.75432Z"
    fill="currentColor"
  />
</svg>

<svg xmlns="http://www.w3.org/2000/svg" width="15" height="15" fill="none"><path fill="currentColor" fill-rule="evenodd" d="M8.754 2.05a.45.45 0 1 0 0 .9H9.95v4.1h-4.9v-4.1h1.204a.45.45 0 1 0 0-.9h-3.5a.45.45 0 1 0 0 .9H3.95v9.1H2.754a.45.45 0 0 0 0 .9h3.5a.45.45 0 0 0 0-.9H5.05v-4.1h4.9v4.1H8.754a.45.45 0 0 0 0 .9h3.5a.45.45 0 0 0 0-.9H11.05v-9.1h1.204a.45.45 0 0 0 0-.9z" clip-rule="evenodd"/></svg>
